X: 14251
T: Furze In Bloom, The
R: jig
M: 6/8
K: Edorian
f|:edB BAB|def e2 f|edB BAF|AFE E2 f|
edB BAB|gfe f2 g|edB BAF|1 AFE E2 f:|2 AFE Bcd||
|:e3 efg|edB d2A|ded dfa|b2a faf|
e3 efg|edB d2 f|edB BAF|1 AFE Bcd:|2 AFD E2 f||

